icons/modern/registered.svg

<svg width="32" height="32" viewBox="0 0 32 32" fill="none" xmlns="http://www.w3.org/2000/svg">
<g filter="url(#filter0_i_18590_2144)">
<path d="M1.7583 15.915C1.7583 23.635 8.0383 29.915 15.7583 29.915C23.4783 29.915 29.7583 23.635 29.7583 15.915C29.7583 8.19499 23.4783 1.91499 15.7583 1.91499C8.0383 1.91499 1.7583 8.19499 1.7583 15.915ZM4.7583 15.915C4.7583 9.84499 9.6883 4.91499 15.7583 4.91499C21.8183 4.91499 26.7583 9.84499 26.7583 15.915C26.7583 21.985 21.8283 26.915 15.7583 26.915C9.6883 26.915 4.7583 21.975 4.7583 15.915Z" fill="url(#paint0_linear_18590_2144)"/>
</g>
<path d="M18.7483 22.515C18.9583 22.865 19.3283 23.085 19.7383 23.085C20.6383 23.085 21.1983 22.105 20.6983 21.355L19.3483 19.135C19.1383 18.815 18.9483 18.545 18.7783 18.315C18.6083 18.075 18.4283 17.865 18.2583 17.685C18.0883 17.505 17.9083 17.315 17.7083 17.145C17.5083 16.975 17.2783 16.815 17.0183 16.665V16.625C17.5183 16.505 17.9583 16.325 18.3483 16.095C18.7383 15.855 19.0783 15.585 19.3583 15.255C19.6383 14.925 19.8483 14.555 19.9983 14.135C20.1483 13.715 20.2283 13.255 20.2283 12.755C20.2283 12.105 20.1083 11.555 19.8683 11.075C19.6383 10.595 19.2983 10.195 18.8783 9.87498C18.4583 9.55498 17.9583 9.31498 17.3883 9.15498C16.8183 8.99498 16.1983 8.91498 15.5183 8.91498H11.6283C11.1083 8.94498 10.7883 9.14498 10.7583 9.78498V21.875C10.7583 22.545 11.2983 23.075 11.9583 23.075C12.6283 23.075 13.1583 22.535 13.1583 21.875V17.335H14.1283C14.4383 17.335 14.7083 17.365 14.9483 17.445C15.1883 17.525 15.4083 17.635 15.6183 17.795C15.8283 17.955 16.0283 18.155 16.2283 18.405C16.4283 18.645 16.6283 18.945 16.8383 19.295L18.7483 22.515ZM13.1683 15.435V10.835H15.1683C15.9983 10.835 16.6183 11.025 17.0583 11.405C17.4983 11.785 17.7183 12.315 17.7183 12.995C17.7183 13.375 17.6583 13.715 17.5283 14.015C17.4083 14.315 17.2283 14.575 16.9983 14.785C16.7683 14.995 16.4983 15.155 16.1883 15.265C15.8783 15.375 15.5383 15.435 15.1683 15.435H13.1683Z" fill="url(#paint1_linear_18590_2144)"/>
<g filter="url(#filter1_f_18590_2144)">
<circle cx="15.9467" cy="15.8754" r="12.6471" stroke="url(#paint2_linear_18590_2144)" stroke-width="0.6"/>
</g>
<g filter="url(#filter2_f_18590_2144)">
<path d="M12.375 22.0399V9.88376H15.7188C16.7031 9.87855 19.1562 10.7649 19.1562 13.0399C19.1562 15.8837 15.6406 16.1649 13.5312 16.1649C14.3073 16.1129 16.5533 16.6607 17.6719 18.3524C18.6719 19.8649 19.3958 21.0243 19.8281 21.7743" stroke="#665E70" stroke-width="0.6" stroke-linecap="round"/>
</g>
<defs>
<filter id="filter0_i_18590_2144" x="1.7583" y="1.41499" width="28" height="28.5" filterUnits="userSpaceOnUse" color-interpolation-filters="sRGB">
<feFlood flood-opacity="0" result="BackgroundImageFix"/>
<feBlend mode="normal" in="SourceGraphic" in2="BackgroundImageFix" result="shape"/>
<feColorMatrix in="SourceAlpha" type="matrix" values="0 0 0 0 0 0 0 0 0 0 0 0 0 0 0 0 0 0 127 0" result="hardAlpha"/>
<feOffset dy="-0.5"/>
<feGaussianBlur stdDeviation="0.25"/>
<feComposite in2="hardAlpha" operator="arithmetic" k2="-1" k3="1"/>
<feColorMatrix type="matrix" values="0 0 0 0 0.247059 0 0 0 0 0.14902 0 0 0 0 0.337255 0 0 0 1 0"/>
<feBlend mode="normal" in2="shape" result="effect1_innerShadow_18590_2144"/>
</filter>
<filter id="filter1_f_18590_2144" x="1.79963" y="1.72838" width="28.2941" height="28.2941" filterUnits="userSpaceOnUse" color-interpolation-filters="sRGB">
<feFlood flood-opacity="0" result="BackgroundImageFix"/>
<feBlend mode="normal" in="SourceGraphic" in2="BackgroundImageFix" result="shape"/>
<feGaussianBlur stdDeviation="0.6" result="effect1_foregroundBlur_18590_2144"/>
</filter>
<filter id="filter2_f_18590_2144" x="11.325" y="8.83374" width="9.55316" height="14.2562" filterUnits="userSpaceOnUse" color-interpolation-filters="sRGB">
<feFlood flood-opacity="0" result="BackgroundImageFix"/>
<feBlend mode="normal" in="SourceGraphic" in2="BackgroundImageFix" result="shape"/>
<feGaussianBlur stdDeviation="0.375" result="effect1_foregroundBlur_18590_2144"/>
</filter>
<linearGradient id="paint0_linear_18590_2144" x1="15.4458" y1="2.72749" x2="15.7583" y2="29.915" gradientUnits="userSpaceOnUse">
<stop stop-color="#4A3162"/>
<stop offset="1" stop-color="#312E35"/>
</linearGradient>
<linearGradient id="paint1_linear_18590_2144" x1="15.8221" y1="8.91498" x2="15.8221" y2="23.085" gradientUnits="userSpaceOnUse">
<stop stop-color="#301C44"/>
<stop offset="1" stop-color="#22142F"/>
</linearGradient>
<linearGradient id="paint2_linear_18590_2144" x1="9.94041" y1="25.2578" x2="26.2258" y2="4.49081" gradientUnits="userSpaceOnUse">
<stop stop-color="#5B585F"/>
<stop offset="1" stop-color="#7A6E87"/>
</linearGradient>
</defs>
</svg>

<svg width="32" height="32" fill="none" xmlns="http://www.w3.org/2000/svg"><g filter="url(#a)"><path d="M1.758 15.915c0 7.72 6.28 14 14 14s14-6.28 14-14-6.28-14-14-14-14 6.28-14 14Zm3 0c0-6.07 4.93-11 11-11 6.06 0 11 4.93 11 11s-4.93 11-11 11-11-4.94-11-11Z" fill="url(#b)"/></g><path d="M18.748 22.515c.21.35.58.57.99.57.9 0 1.46-.98.96-1.73l-1.35-2.22c-.21-.32-.4-.59-.57-.82a5.82 5.82 0 0 0-.52-.63c-.17-.18-.35-.37-.55-.54-.2-.17-.43-.33-.69-.48v-.04c.5-.12.94-.3 1.33-.53.39-.24.73-.51 1.01-.84.28-.33.49-.7.64-1.12.15-.42.23-.88.23-1.38 0-.65-.12-1.2-.36-1.68-.23-.48-.57-.88-.99-1.2-.42-.32-.92-.56-1.49-.72-.57-.16-1.19-.24-1.87-.24h-3.89c-.52.03-.84.23-.87.87v12.09c0 .67.54 1.2 1.2 1.2.67 0 1.2-.54 1.2-1.2v-4.54h.97c.31 0 .58.03.82.11s.46.19.67.35c.21.16.41.36.61.61.2.24.4.54.61.89l1.91 3.22Zm-5.58-7.08v-4.6h2c.83 0 1.45.19 1.89.57.44.38.66.91.66 1.59 0 .38-.06.72-.19 1.02-.12.3-.3.56-.53.77-.23.21-.5.37-.81.48-.31.11-.65.17-1.02.17h-2Z" fill="url(#c)"/><g filter="url(#d)"><circle cx="15.947" cy="15.875" r="12.647" stroke="url(#e)" stroke-width=".6"/></g><g filter="url(#f)"><path d="M12.375 22.04V9.884h3.344c.984-.005 3.437.88 3.437 3.156 0 2.844-3.515 3.125-5.625 3.125.776-.052 3.022.496 4.14 2.187 1 1.513 1.725 2.672 2.157 3.422" stroke="#665E70" stroke-width=".6" stroke-linecap="round"/></g><defs><linearGradient id="b" x1="15.446" y1="2.727" x2="15.758" y2="29.915" gradientUnits="userSpaceOnUse"><stop stop-color="#4A3162"/><stop offset="1" stop-color="#312E35"/></linearGradient><linearGradient id="c" x1="15.822" y1="8.915" x2="15.822" y2="23.085" gradientUnits="userSpaceOnUse"><stop stop-color="#301C44"/><stop offset="1" stop-color="#22142F"/></linearGradient><linearGradient id="e" x1="9.94" y1="25.258" x2="26.226" y2="4.491" gradientUnits="userSpaceOnUse"><stop stop-color="#5B585F"/><stop offset="1" stop-color="#7A6E87"/></linearGradient><filter id="a" x="1.758" y="1.415" width="28" height="28.5" filterUnits="userSpaceOnUse" color-interpolation-filters="sRGB"><feFlood flood-opacity="0" result="BackgroundImageFix"/><feBlend in="SourceGraphic" in2="BackgroundImageFix" result="shape"/><feColorMatrix in="SourceAlpha" values="0 0 0 0 0 0 0 0 0 0 0 0 0 0 0 0 0 0 127 0" result="hardAlpha"/><feOffset dy="-.5"/><feGaussianBlur stdDeviation=".25"/><feComposite in2="hardAlpha" operator="arithmetic" k2="-1" k3="1"/><feColorMatrix values="0 0 0 0 0.247059 0 0 0 0 0.14902 0 0 0 0 0.337255 0 0 0 1 0"/><feBlend in2="shape" result="effect1_innerShadow_18590_2144"/></filter><filter id="d" x="1.8" y="1.728" width="28.294" height="28.294" filterUnits="userSpaceOnUse" color-interpolation-filters="sRGB"><feFlood flood-opacity="0" result="BackgroundImageFix"/><feBlend in="SourceGraphic" in2="BackgroundImageFix" result="shape"/><feGaussianBlur stdDeviation=".6" result="effect1_foregroundBlur_18590_2144"/></filter><filter id="f" x="11.325" y="8.834" width="9.553" height="14.256" filterUnits="userSpaceOnUse" color-interpolation-filters="sRGB"><feFlood flood-opacity="0" result="BackgroundImageFix"/><feBlend in="SourceGraphic" in2="BackgroundImageFix" result="shape"/><feGaussianBlur stdDeviation=".375" result="effect1_foregroundBlur_18590_2144"/></filter></defs></svg>
